X: 1
T: Low Road To Glin, The
M: 4/4
L: 1/8
R: reel
K: Edor
A | B2 Ad  BE{G}EA | {d}B{A}B  Ad Bded | BdAd BE{G}EG |F/E/D  AG FDFA |
B2 Ad BE{G}EA |  {d}B{A}B Ad Bded |fded BABc | dBAd BE{G}EB ||
e2 Be geBg |e^def gfec | d2 Ad f d{e}d{c}d |  BABc dAFB |
e2 Be geBg | e^def gfga | bgaf {a}gfed |B/c/d ef ge e2 |]
